!!!ONB: MCCC : IJH0453_03 : Extracted Monophonic Melody
!!!COM: Haydn, Joseph
!!!OPR: String Quartet in F major
!!!OMV: 3
!!!SCT: Hob.III:48 ; Op.50 No.5
!!!ODT: 1787///
**kern
*thru
*k[b-]
*F:
*clefG
*M3/4
16cc
4cc
=1
4dd
4b
4cc
=2
4b-
4g
4e
=3
2.d
=4
4c
8.r
16c
4c
=5
4f
8.r
16c
4c
=6
4g
8.r
16c
4c
=7
4a
4dd
4b
=8
4cc
8.r
16cc
4cc
=9
4ff
4ee
4ff
=10
4ff#
4gg
4aa
=11
2.ccc
=12
4bb-
8.r
16aa
4aa
=13
4ddd
8.r
16gg
4gg
=14
4ccc
8.r
16ff
4ff
=15
4ee
4bb-
4aa
=16
4gg
8.r
16ccc
4ccc
=17
4aa-
4ee
4ff
=18
4cc
8.r
16ee
4ee
=19
4ff
4gg
4aa-
=20
4gg
8.r
16gg
4gg
=21
4aa-
8.r
16aa
4aa
=22
4bb-
8.r
16bb
4bb
=23
4ccc
8.r
16ccc#
4ccc#
=24
4ddd
4bb
4ccc
=25
4bb-
4gg
4ee
=26
2.dd
=27
4cc
8.r
16cc
4cc
=28
4ff
8.r
16ff
4ff
=29
4aa
8.r
16ff
4ff
=30
4bb-
8.r
16ddd
4ddd
=31
4.fff
8ddd
8bb-
8gg
=32
2ff
4gg
=33
4ff
8.r
16cc
4cc
=34
4dd
4b
4cc
=35
4a
8.b-
16g#
4g#
=36
4a
4f#
4g
=37
4e
4f
4b-
=38
4a
4r
4dd
=39
4r
4cc
4r
=40
4ee
4r
4ff
=41
*f:
4..r
16cc
4cc
=42
4dd-
4b
4cc
=43
4b-
4g
4e
=44
2.d-
=45
2c
4B-
=46
4A-
4c
4e-
=47
4a-
8cc
16r
16ee-
4ee-
=48
4ff
4dd
4ee-
=49
4dd-
4b
4cc
=50
4b-
4g
4a-
=51
2ee-
4dd
=52
2dd-
4cc
=53
4b-
4dd-
4ff
=54
2a-
4b-
=55
4a-
8.r
16e-
4e-
=56
4a-
4g
4a-
=57
4cc
8b-
16r
16e-
4e-
=58
4b-
4a
4b-
=59
4dd-
8cc
16r
16ff
4ff
=60
4gg-
4ee
4ff
=61
4ee-
4cc
4dd-
=62
4cc
4ee-
4a
=63
4b-
8.r
16bb-
4bb-
=64
4ddd-
4bb-
4gg
=65
4ee
4ccc
4bb-
=66
2bb-
4aa-
=67
4gg
8.r
16cc
4cc
=68
4ff
4ee
4ff
=69
4aa-
4gg
4aa
=70
4ccc
4bb-
4ccc
=71
2.eee-
=72
4ddd-
8.r
16bb-
4bb-
=73
4ddd-
4bb-
4gg
=74
2ff
8gg
8ee
=75
4ff
2r
=76
4r
4ff
4ee
=77
4r
4gg
4gg
=78
4r
4bb-
4bb-
=79
4.ddd-
8ccc
4bb-
=80
4aa-
4bb-
4gg
=81
4ff
2r
==
*-
